!!!COM: Schoenberg [Schönberg], Arnold (Franz Walter)
!!!OTL: String Quartet No. 3, op. 30
!!!OMV: I: Moderato
!!!example: 202
!!!work: Sch-29
**kern	**kern	**kern	**kern
*part4	*part3	*part2	*part1
*staff4	*staff3	*staff2	*staff1
*I"Violoncello	*I"Viola	*I"Violin II	*I"Violin I
*I'Vc.	*I'Vla.	*I'Vln. II	*I'Vln. I
*clefF4	*clefC3	*clefG2	*clefG2
*k[]	*k[]	*k[]	*k[]
*C:	*C:	*C:	*C:
*M4/4	*M4/4	*M4/4	*M4/4
*MM200	*MM200	*MM200	*MM200
=333	=333	=333	=333
*	*	*^	*
8r	8C#XL	4r	4r	8fffL
8Bn	8FnJ 8en	.	.	8ff#X 8ccc
8BL	4.F 4.e	(4d	4.a	8ff# 8ccc
8AA-XJ 8E-X	.	.	.	8gggnJ
8AA- 8E-	.	4bb-X)	.	4.gggn
8r	8CnL	.	8r	.
8r	8C	4r	4r	.
8DDn	8AnJ 8g#X	.	.	8ff# 8ccc
=334	=334	=334	=334	=334
8DDL	[2An [2g#X	4r	4r	8ff#XL 8ccc
8BB-XJ 8Fn	.	.	.	8gggnJ
4.BB- 4.Fn	.	(4bbn	4.ee	4.gggn
.	8A] 8g#]	4d#X)	.	.
8r	8r	.	8r	8eeenL
*clefC3	*	*	*	*
([4ccn	([4ccn	[4ggn	4r	8eee
.	.	.	.	8ee-XJ
*	*	*v	*v	*
=335	=335	=335	=335
4cc]	4cc]	4gg]	8fffnL
.	.	.	8ff#X
2f)	2cc#X)	2aa-X	8ff#
.	.	.	8bbb-XJ
.	.	.	8bbb-L
.	.	.	8bb-XJ
*clefF4	*clefG2	*	*
8EE-XL	8r	8r	8r
8EnJ	[8gg	[8bb-X	[8cccc
=336	=336	=336	=336
8EnL	4.gg]	4.bb-]	4.cccc]
8D	.	.	.
8D	.	.	.
8c#XJ	[8ff#X	[8bbn	[8fffn
8G#XL	4.ff#]	4.bb]	4.fff]
*clefC3	*	*	*
8ccJ	.	.	.
8cc	.	.	.
8r	8r	8r	8cccc
=337	=337	=337	=337
2an	2aa-X	2eee-X	8ccccL
.	.	.	8bbn
.	.	.	8ccc#X
.	.	.	8ddnJ
2dd-X	2aan	[2eeen	8ddnL
.	.	.	8G
.	.	.	8G
.	.	.	8f#XJ
*clefF4	*	*	*
=338	=338	=338	=338
2.C	8gL	4.eee]	1bn
.	8aa-XJ	.	.
.	[2.aa-	.	.
.	.	8ff#X	.
.	.	8ff#L	.
.	.	8fffnJ	.
8CL	.	(4ddd	.
8DD-XJ	.	.	.
=339	=339	=339	=339
4DD-X	4aan	4eee-X)	4bbb-X
4r	4r	4r	4r
8r	2r	2r	4r
8EEn 8GGn	.	.	.
8EEnL 8GGn	.	.	8r
8D#XJ 8An	.	.	8bn 8ffn
=340	=340	=340	=340
*^	*	*	*
2r	1CC	8r	8r	8bL 8ff
.	.	8ddn	8aa-X 8ddd	8bb-XJ 8ggg-X
.	.	8ddL	8aa- 8ddd	4r
*	*	*clefC3	*	*
.	.	8enJ 8dd#X	8r	.
8r	.	8enL 8dd#	4r	2r
8Dn	.	8B-XJ 8gn	.	.
8DnL	.	4B- 4gn	8gg#XL	.
8D-XJ	.	.	8ff#XJ 8aan	.
*v	*v	*	*	*
=341	=341	=341	=341
4CC 4D-X	4B-X 4g	4ff#X 4aa	4bbn 4fff
4r	4r	4r	4r
2r	2r	2r	2r
=	=	=	=
*-	*-	*-	*-
!!!system-decoration: [(s1,s2,s3,s4)]
!!!CDT: 1874/09/13-1951/07/13
!!!CBL: Vienna, Austria
!!!CDL: Los Angeles, United States
!!!CNT: Austrian
!!!AGN: Instrumental; Chamber
!!!MCN:
!!!MDT: 1927/09/19
!!!MGN: Kolisch Quartet
!!!MLC: Vienna, Austria
!!!MPD: 1927
!!!MPN: Kolisch, Rudolf
!!!ODT: 1927
!!!PDT: 1927
!!!excerpt-start-measure: 333
!!!excerpt-end-measure: 341
!!!excerpt-start-time: 7:55
!!!excerpt-end-time: 8:08
!!!EEV: 2020/01/25
!!!ONB: Converted from MusicXML on 2020/01/25
